svg/other/bath_line.svg

<?xml version="1.0" encoding="UTF-8"?>
<svg width="24px" height="24px" viewBox="0 0 24 24" version="1.1" xmlns="http://www.w3.org/2000/svg" xmlns:xlink="http://www.w3.org/1999/xlink">
    <title>bath_line</title>
    <g id="Icon" stroke="none" stroke-width="1" fill="none" fill-rule="evenodd">
        <g id="Business" transform="translate(-97.000000, -480.000000)">
            <g id="bath_line" transform="translate(97.000000, 480.000000)">
                <path d="M24,0 L24,24 L0,24 L0,0 L24,0 Z M12.5935,23.2578 L12.5819,23.2595 L12.5109,23.295 L12.4919,23.2987 L12.4767,23.295 L12.4057,23.2595 C12.3958,23.2564 12.387,23.259 12.3821,23.2649 L12.378,23.2758 L12.3609,23.7031 L12.3659,23.7235 L12.3769,23.7357 L12.4805,23.8097 L12.4953,23.8136 L12.5071,23.8097 L12.6107,23.7357 L12.6233,23.7197 L12.6267,23.7031 L12.6096,23.2758 C12.6076,23.2657 12.601,23.2593 12.5935,23.2578 Z M12.8584,23.1453 L12.8445,23.1473 L12.6598,23.2397 L12.6499,23.2499 L12.6472,23.2611 L12.6651,23.6906 L12.6699,23.7034 L12.6784,23.7105 L12.8793,23.8032 C12.8914,23.8069 12.9022,23.803 12.9078,23.7952 L12.9118,23.7812 L12.8777,23.1665 C12.8753,23.1546 12.8674,23.147 12.8584,23.1453 Z M12.143,23.1473 C12.1332,23.1424 12.1222,23.1453 12.1156,23.1526 L12.1099,23.1665 L12.0758,23.7812 C12.0751,23.7927 12.0828,23.8019 12.0926,23.8046 L12.1083,23.8032 L12.3092,23.7105 L12.3186,23.7024 L12.3225,23.6906 L12.3404,23.2611 L12.3372,23.2485 L12.3278,23.2397 L12.143,23.1473 Z" id="MingCute" fill-rule="nonzero"></path>
                <path d="M7,6 C7,5.44772 7.44772,5 8,5 L9,5 L9,6 C9,6.55228 9.44772,7 10,7 C10.5523,7 11,6.55228 11,6 L11,5 C11,3.89543 10.1046,3 9,3 L8,3 C6.34315,3 5,4.34315 5,6 L5,11 L4,11 C2.89543,11 2,11.8954 2,13 L2,14 C2,16.0621 3.04024,17.8812 4.62458,18.9612 L4.29289,19.2929 C3.90237,19.6834 3.90237,20.3166 4.29289,20.7071 C4.68342,21.0976 5.31658,21.0976 5.70711,20.7071 L6.58261,19.8316 C7.03706,19.9417 7.51172,20 8,20 L16,20 C16.4883,20 16.9629,19.9417 17.4174,19.8316 L18.2929,20.7071 C18.6834,21.0976 19.3166,21.0976 19.7071,20.7071 C20.0976,20.3166 20.0976,19.6834 19.7071,19.2929 L19.3754,18.9612 C20.9598,17.8812 22,16.0621 22,14 L22,13 C22,11.8954 21.1046,11 20,11 L7,11 L7,6 Z M4,13 L20,13 L20,14 C20,16.2091 18.2091,18 16,18 L8,18 C5.79086,18 4,16.2091 4,14 L4,13 Z" id="形状" fill="#09244B"></path>
            </g>
        </g>
    </g>
</svg>

<svg xmlns="http://www.w3.org/2000/svg" width="24" height="24"><g fill="none" fill-rule="evenodd"><path d="M24 0v24H0V0h24ZM12.594 23.258l-.012.002-.071.035-.02.004-.014-.004-.071-.036c-.01-.003-.019 0-.024.006l-.004.01-.017.428.005.02.01.013.104.074.015.004.012-.004.104-.074.012-.016.004-.017-.017-.427c-.002-.01-.009-.017-.016-.018Zm.264-.113-.014.002-.184.093-.01.01-.003.011.018.43.005.012.008.008.201.092c.012.004.023 0 .029-.008l.004-.014-.034-.614c-.003-.012-.01-.02-.02-.022Zm-.715.002a.023.023 0 0 0-.027.006l-.006.014-.034.614c0 .012.007.02.017.024l.015-.002.201-.093.01-.008.003-.011.018-.43-.003-.012-.01-.01-.184-.092Z"/><path fill="#09244B" d="M7 6a1 1 0 0 1 1-1h1v1a1 1 0 0 0 2 0V5a2 2 0 0 0-2-2H8a3 3 0 0 0-3 3v5H4a2 2 0 0 0-2 2v1a5.994 5.994 0 0 0 2.625 4.961l-.332.332a1 1 0 1 0 1.414 1.414l.876-.875c.454.11.929.168 1.417.168h8c.488 0 .963-.058 1.417-.168l.876.875a1 1 0 0 0 1.414-1.414l-.332-.332A5.994 5.994 0 0 0 22 14v-1a2 2 0 0 0-2-2H7V6Zm-3 7h16v1a4 4 0 0 1-4 4H8a4 4 0 0 1-4-4v-1Z"/></g></svg>
